X:260
%%etbk:tnset id:78,pos:4,rep:3x,ant:
%%etbk:wsite http://www.thesession.org/tunes/display/803
%%etbk:skill ?
%%etbk:pldat 2013-11-21T18:38,2013-11-16T14:49,2013-11-13T16:43,2013-11-12T19:13,2013-10-15T18:58,2013-10-13T16:45,2013-10-11T18:57,2013-10-08T17:22,2013-10-05T16:13,2013-10-01T18:59,2013-09-27T17:43,2013-05-06T18:09,2013-05-01T17:39
T: I Ne'er Shall Wean Her
Z: Piano Box Version by Martin Fleischmann
H: Created 2013-02-19 /  Last Modified 2013-02-19
M: 6/8
L: 1/8
R: jig
K: Ador
|: !2!G | "C"!1!E!2!GG {B}!2!G!1!E!2!D | !1!E!2!GG !5!c2!4!B | "am"!3!A!5!cA !3!A!2!G!1!A | !3!cde !5!e!1!c!2!d |
"C"!1!c!2!d!3!e !4!g2!5!a | !4!ged !1!c2!1!d | "am"!3!e!5!aa !2!ee!1!d | !2!c!1!AA A3 :|
|: !1!d | "C"!2!e!4!gg !4!ged | !2!e!4!gg !4!g2!1!d | "am"!2!e!4!aa aga | !5!bag !4!a2!3!g |
"C"!1!c!2!d!3!e !4!g2!5!a | !4!ged !1!c2!1!d | "am"!2!e!5!aa !2!ee!1!d | !3!c!1!AA A3 :|
